dist/images/desktop-logo.svg

<svg width="100" height="44" viewBox="0 0 100 44" fill="none" xmlns="http://www.w3.org/2000/svg">
<path d="M12.4239 25.2111C12.2696 25.2111 12.0657 25.2558 11.9094 25.428C11.7613 25.591 11.7314 25.7867 11.7314 25.9231V29.0066C11.7314 29.1431 11.7613 29.3387 11.9094 29.5017C12.0657 29.6739 12.2696 29.7186 12.4239 29.7186H18.0069V31.7828H12.4239C12.2825 31.7828 12.0847 31.8185 11.9258 31.9776C11.767 32.1366 11.7314 32.3343 11.7314 32.4755V35.5408H9.67065V23.1084H19.5854V25.2111H12.4239Z" fill="#F2E7FE" stroke="#F2E7FE"/>
<path d="M89.5938 24.3775L89.595 24.3784C90.8214 25.4112 91.4768 27.0154 91.4768 29.2957C91.4768 31.6424 90.8139 33.275 89.5798 34.3059C88.596 35.1065 87.1653 35.5408 85.22 35.5408H79.9258V23.0121H85.22C87.0994 23.0121 88.5394 23.4843 89.5938 24.3775ZM87.0739 33.2689L87.074 33.269L87.0831 33.2665C87.623 33.1205 88.0851 32.8779 88.442 32.5205C88.8088 32.1534 89.0537 31.6917 89.1882 31.1559C89.3306 30.6263 89.3968 30.0032 89.3968 29.2957C89.3968 27.8382 89.059 26.6745 88.2419 25.9687L88.2419 25.9687L88.2337 25.9618C87.5149 25.3673 86.4796 25.1148 85.22 25.1148H82.6598C82.5312 25.1148 82.343 25.1473 82.1905 25.3C82.0381 25.4526 82.0058 25.6407 82.0058 25.769V32.8032C82.0058 32.9315 82.0381 33.1196 82.1905 33.2721C82.343 33.4248 82.5312 33.4573 82.6598 33.4573H85.22C85.9372 33.4573 86.5587 33.3979 87.0739 33.2689ZM82.0756 15.4187V20.5268H79.9956V8.01733H82.0499L85.1282 14.4025L85.165 14.4788L85.2249 14.5387C85.305 14.6189 85.4504 14.7239 85.6556 14.7239C85.8083 14.7239 86.0533 14.6622 86.1799 14.4088L86.18 14.4088L86.183 14.4025L89.2614 8.01733H91.3349V20.5268H89.2549V15.3995C89.2549 15.2567 89.202 15.1107 89.0894 14.9979C88.9962 14.9046 88.8901 14.8621 88.8147 14.8414C88.7073 14.81 88.5745 14.804 88.4391 14.8582C88.302 14.9131 88.2156 15.0084 88.1654 15.0838L88.1458 15.1133L88.1305 15.1453L86.5532 18.4455H84.7751L83.1793 15.1617L83.1794 15.1616L83.1769 15.1568C83.1426 15.0881 83.074 14.9768 82.9438 14.8986C82.791 14.8068 82.6197 14.7998 82.4751 14.8481L82.4751 14.8481C82.3528 14.8889 82.2375 14.9717 82.1612 15.0991C82.0908 15.2165 82.0756 15.3349 82.0756 15.4187Z" fill="#F2E7FE" stroke="#F2E7FE"/>
<path d="M17.7728 8.20733L17.7728 8.20734L17.7758 8.20863C18.4375 8.49254 19.0128 8.88099 19.5057 9.37443L19.5057 9.37446L19.51 9.37867C20.0003 9.8578 20.3871 10.4257 20.6703 11.0872C20.9508 11.7424 21.092 12.4396 21.092 13.1838C21.092 13.8064 20.9867 14.4103 20.7755 14.9981C20.5645 15.5726 20.2599 16.1008 19.8594 16.5843L19.8594 16.5842L19.8557 16.5888C19.2579 17.3281 18.5103 17.8667 17.6041 18.2084L17.1358 18.3849L17.3128 18.853L17.8655 20.3154H15.6241L15.1324 19.0078C15.0951 18.9014 15.0263 18.7822 14.9044 18.6907C14.776 18.5942 14.6325 18.5616 14.508 18.5616H11.8707C11.7259 18.5616 11.5304 18.6052 11.3813 18.773C11.2423 18.9296 11.2167 19.1139 11.2167 19.2351V20.3154H9.13672V7.78662H15.7015C16.4446 7.78662 17.1332 7.92792 17.7728 8.20733ZM16.9552 16.2266L16.9553 16.2267L16.9635 16.223C17.3584 16.0473 17.7087 15.8172 18.0095 15.5311L18.0097 15.5312L18.0187 15.5221C18.3198 15.2207 18.5544 14.8727 18.7205 14.481C18.9021 14.0704 18.9927 13.6364 18.9927 13.1838C18.9927 12.7369 18.9108 12.3115 18.7428 11.913C18.5774 11.5076 18.3424 11.1502 18.038 10.8454L17.6842 11.1988L18.038 10.8454C17.7354 10.5425 17.3808 10.3082 16.9788 10.1427C16.5792 9.9599 16.1515 9.8701 15.7015 9.8701H11.8707C11.7259 9.8701 11.5304 9.91361 11.3813 10.0815C11.2423 10.238 11.2167 10.4223 11.2167 10.5435V15.824C11.2167 15.9523 11.2491 16.1404 11.4015 16.293C11.554 16.4456 11.7422 16.4782 11.8707 16.4782H15.6822C16.13 16.4782 16.5561 16.3956 16.9552 16.2266ZM25.1101 19.2503L25.1036 19.2655L25.0981 19.2812L24.7344 20.3154H22.5268L27.0188 7.80589H30.3001L34.792 20.3154H32.5798L32.2041 19.2881C32.1682 19.1749 32.0996 19.0488 31.9744 18.9514C31.8393 18.8461 31.6868 18.8122 31.5566 18.8122H25.7431C25.5995 18.8122 25.4563 18.8568 25.3348 18.9514C25.2205 19.0404 25.1519 19.1528 25.1101 19.2503ZM28.2319 10.8573C28.106 10.9553 28.0373 11.0824 28.0016 11.1961L26.3525 15.8035C26.273 16.012 26.2903 16.2514 26.4401 16.4514C26.573 16.6287 26.7725 16.7287 26.9943 16.7287H30.3246C30.4653 16.7287 30.7344 16.6961 30.9042 16.4504C31.0668 16.2153 31.015 15.959 30.9757 15.8313L30.9724 15.8204L30.9686 15.8097L29.3131 11.1845L29.3079 11.1701L29.302 11.1562C29.2551 11.0468 29.1775 10.9301 29.0522 10.8423C28.9242 10.7526 28.7818 10.7181 28.6498 10.7181C28.5196 10.7181 28.3671 10.752 28.2319 10.8573ZM39.6048 7.80589L44.2174 14.6395C44.2377 14.6744 44.2676 14.7183 44.3101 14.7609C44.371 14.8218 44.4971 14.9172 44.6831 14.9172H44.8904L45.0369 14.7705C45.1764 14.6308 45.2023 14.462 45.2023 14.3593V7.80589H47.2823V20.3154H45.3211L40.6481 13.0836C40.6178 13.0304 40.549 12.9305 40.4217 12.8667C40.3214 12.8165 40.1961 12.7952 40.0668 12.8276C40.0283 12.8373 39.9938 12.8506 39.9633 12.8656C39.9395 12.8766 39.9158 12.8897 39.8926 12.9052C39.8024 12.9654 39.7481 13.0424 39.7169 13.1049C39.6615 13.2157 39.6593 13.3189 39.6593 13.3572V20.3154H37.5793V7.80589H39.6048ZM60.2598 9.15206L60.2609 9.15301C61.4874 10.1858 62.1427 11.79 62.1427 14.0703C62.1427 16.417 61.4798 18.0497 60.2457 19.0806C59.2619 19.8811 57.8312 20.3154 55.886 20.3154H50.5917V7.78662H55.886C57.7654 7.78662 59.2054 8.25882 60.2598 9.15206ZM57.7399 18.0435L57.7399 18.0436L57.7491 18.0411C58.289 17.895 58.7511 17.6524 59.108 17.2951C59.4747 16.9279 59.7196 16.4663 59.8542 15.9306C59.9966 15.4009 60.0627 14.7777 60.0627 14.0703C60.0627 12.6127 59.7249 11.4491 58.9078 10.7433L58.9079 10.7432L58.8996 10.7364C58.1808 10.1419 57.1456 9.88937 55.886 9.88937H53.3257C53.1972 9.88937 53.009 9.9219 52.8565 10.0746C52.7041 10.2271 52.6717 10.4152 52.6717 10.5435V17.5777C52.6717 17.706 52.7041 17.8941 52.8565 18.0467C53.009 18.1994 53.1972 18.2319 53.3257 18.2319H55.886C56.6032 18.2319 57.2247 18.1724 57.7399 18.0435Z" fill="#F2E7FE" stroke="#F2E7FE"/>
<path d="M96.907 42H3.34302C2.60436 42 2 41.395 2 40.6555V3.34454C2 2.60504 2.60436 2 3.34302 2H96.907C97.6456 2 98.25 2.60504 98.25 3.34454V40.6555C98.25 41.395 97.6456 42 96.907 42Z" stroke="#F2E7FE" stroke-width="3" stroke-miterlimit="10"/>
<path d="M59.9178 34.5491H24.5515C23.8129 34.5491 23.2085 33.944 23.2085 33.2045V25.3614C23.2085 24.6219 23.8129 24.0168 24.5515 24.0168H59.9178C60.6565 24.0168 61.2608 24.6219 61.2608 25.3614V33.2045C61.2608 33.944 60.6565 34.5491 59.9178 34.5491Z" stroke="#F2E7FE" stroke-width="3" stroke-miterlimit="10"/>
<path d="M65.7375 33.3166V10.1233C65.7375 9.38385 66.3419 8.77881 67.0806 8.77881H74.9149C75.6535 8.77881 76.2579 9.38385 76.2579 10.1233V33.3166C76.2579 34.0561 75.6535 34.6612 74.9149 34.6612H67.0806C66.3419 34.6612 65.7375 34.0561 65.7375 33.3166Z" stroke="#F2E7FE" stroke-width="3" stroke-miterlimit="10"/>
</svg>

<svg width="100" height="44" fill="none" xmlns="http://www.w3.org/2000/svg"><path d="M12.424 25.211a.683.683 0 0 0-.515.217.725.725 0 0 0-.178.495v3.084c0 .136.03.332.178.495.157.172.36.217.515.217h5.583v2.064h-5.583a.692.692 0 0 0-.498.195.693.693 0 0 0-.195.497v3.066h-2.06V23.108h9.914v2.103h-7.161zm77.17-.833h.001c1.226 1.033 1.882 2.637 1.882 4.918 0 2.346-.663 3.979-1.897 5.01-.984.8-2.415 1.235-4.36 1.235h-5.294V23.012h5.294c1.88 0 3.32.472 4.374 1.366zm-2.52 8.89v.001l.01-.002c.539-.147 1.001-.39 1.358-.747.367-.367.612-.828.746-1.364.143-.53.209-1.153.209-1.86 0-1.458-.338-2.622-1.155-3.327h0l-.008-.007c-.72-.595-1.754-.847-3.014-.847h-2.56a.654.654 0 0 0-.47.185.654.654 0 0 0-.184.469v7.034c0 .129.032.317.184.47a.657.657 0 0 0 .47.184h2.56c.717 0 1.339-.06 1.854-.188zm-4.998-17.85v5.109h-2.08V8.017h2.054l3.078 6.386.037.076.06.06c.08.08.225.185.43.185a.576.576 0 0 0 .525-.315h0l.003-.007 3.078-6.385h2.074v12.51h-2.08v-5.128a.566.566 0 0 0-.166-.401.615.615 0 0 0-.274-.157.573.573 0 0 0-.65.243l-.02.03-.014.031-1.578 3.3h-1.778l-1.596-3.283h0l-.002-.005a.62.62 0 0 0-.233-.258.56.56 0 0 0-.469-.05h0a.576.576 0 0 0-.314.25.619.619 0 0 0-.085.32zM17.773 8.207h0l.003.002a5.46 5.46 0 0 1 1.73 1.165h0l.004.005c.49.479.877 1.047 1.16 1.708.28.655.422 1.353.422 2.097 0 .622-.105 1.226-.316 1.814a5.375 5.375 0 0 1-.917 1.586h0l-.003.005a5.194 5.194 0 0 1-2.252 1.62l-.468.176.177.468.553 1.462h-2.242l-.492-1.307a.655.655 0 0 0-.624-.446h-2.637a.645.645 0 0 0-.49.211.687.687 0 0 0-.164.462v1.08h-2.08V7.787H15.7c.744 0 1.432.14 2.072.42zm-.818 8.02h0l.009-.004a3.668 3.668 0 0 0 1.046-.692h0l.009-.009c.3-.301.535-.65.702-1.041.181-.41.272-.845.272-1.297 0-.447-.082-.872-.25-1.271a3.214 3.214 0 0 0-.705-1.068l-.354.354.354-.354a3.21 3.21 0 0 0-1.06-.702 3.04 3.04 0 0 0-1.277-.273h-3.83a.645.645 0 0 0-.49.212.686.686 0 0 0-.164.461v5.281c0 .128.032.316.184.469a.654.654 0 0 0 .47.185h3.811c.448 0 .874-.082 1.273-.251zm8.155 3.023l-.006.015-.006.016-.364 1.034h-2.207l4.492-12.51H30.3l4.492 12.51H32.58l-.376-1.027a.682.682 0 0 0-.23-.337.673.673 0 0 0-.417-.139h-5.814a.66.66 0 0 0-.408.14.747.747 0 0 0-.225.298zm3.122-8.393a.683.683 0 0 0-.23.34l-1.65 4.607a.683.683 0 0 0 .642.925h3.33c.141 0 .41-.033.58-.279.163-.235.111-.491.072-.619l-.004-.01-.003-.011-1.656-4.626-.005-.014-.006-.014a.696.696 0 0 0-.652-.438.674.674 0 0 0-.418.14zm11.373-3.051l4.612 6.833a.531.531 0 0 0 .466.278h.207l.147-.146a.577.577 0 0 0 .165-.412V7.806h2.08v12.51h-1.96l-4.674-7.232a.544.544 0 0 0-.226-.217.513.513 0 0 0-.53.038.518.518 0 0 0-.175.2.563.563 0 0 0-.058.252v6.958h-2.08V7.805h2.026zM60.26 9.152v.001c1.227 1.033 1.883 2.637 1.883 4.917 0 2.347-.663 3.98-1.897 5.01-.984.801-2.415 1.235-4.36 1.235h-5.294V7.787h5.294c1.88 0 3.32.472 4.374 1.365zm-2.52 8.892h0l.01-.003c.539-.146 1.001-.389 1.358-.746.367-.367.612-.829.746-1.364.143-.53.209-1.153.209-1.86 0-1.458-.338-2.622-1.155-3.328h0l-.008-.007c-.72-.594-1.754-.847-3.014-.847h-2.56a.654.654 0 0 0-.47.186.654.654 0 0 0-.184.469v7.034c0 .128.032.316.184.469a.658.658 0 0 0 .47.185h2.56c.717 0 1.339-.06 1.854-.188z" fill="#F2E7FE" stroke="#F2E7FE"/><path d="M96.907 42H3.343A1.348 1.348 0 0 1 2 40.656V3.345C2 2.605 2.604 2 3.343 2h93.564c.739 0 1.343.605 1.343 1.345v37.31c0 .74-.604 1.345-1.343 1.345z" stroke="#F2E7FE" stroke-width="3" stroke-miterlimit="10"/><path d="M59.918 34.55H24.552a1.348 1.348 0 0 1-1.343-1.345V25.36c0-.74.604-1.344 1.343-1.344h35.366c.739 0 1.343.605 1.343 1.344v7.844c0 .739-.605 1.344-1.343 1.344zm5.819-1.233V10.123c0-.74.605-1.344 1.344-1.344h7.834c.738 0 1.343.605 1.343 1.344v23.194c0 .74-.605 1.344-1.343 1.344H67.08a1.348 1.348 0 0 1-1.344-1.344z" stroke="#F2E7FE" stroke-width="3" stroke-miterlimit="10"/></svg>
